X: 1
T: Jack is Yet Alive
O: trad. Shetland
R: reel
Q: "reel"
Z: 2021 John Chambers <jc:trillian.mit.edu>
S: handout for Anne Hooper's 2021-5-2 zoom session (handwritten)
M: C
L: 1/8
K: G
GE |:\
"G"DEG(uB "Am"A2-A)(vc | "G/B"B)dBG "C"AGEG | "G/B"DEG(uB "C"A2-A)(vc | "D7"B)GAF [1 "G"G3E :|2 "G"G3 (ud ||
"Em"g2)g(e "D"f2)(d | "C"ef)ge "D"agf(ud | "Em"g2)g(e "D"f2)fd | "C"(ef)ag "D"f2d(uf |
"Em"g2)g(e "D"f2)fd | "C"ve2-ef "G/B"e(dB2) | "C"g2fg "Am"e2dc | "D7"BGAF | "G"G2 |]
